X: 53
T: New Highland Reel
R: hornpipe
M: C|
L: 1/8
Z: 2012 John Chambers <jc:trillian.mit.edu>
B: Saml. Ann & Peter Thompson "Twenty Four Country Dances for the Year 1791", London 1791, p.27 #1
K: E
% - - - - - - - - - - - - - - - - - - - - - - - - -
|:\
E>FG>A B>cd>B | e>gb>g e>dc>B | c>ed>f e>gf>a | g>eb>g Tg2f2 |
E>FG>A B>cd>B | e>gf>g e>dc>B | c>ed>f e>gf>a | g2Tf2 e4 :|
|:\
b>gb>g a>fa>f | g>eb>g e>dc>B | c>ed>f e>gf>a | g>eb>g Tg2f2 |
b>gb>g a>fa>f | g>eb>g e>dc>B | c>ed>f e>gf>a | g2Tf2 e4 :|
|:\
E>BG>B E>BG>B | E>eg>e b>eg>e | E>BG>B E>eg>e | a>fd>f f>ed>e |
E>BG>B E>BG>B | E>eg>e b>eg>e | E>BG>B E>eg>e | b>ga>f e4 :|
% - - - - - - - - Dance description - - - - - - - -
%%begintext align
%% Cast off 2 Cu: up again .|.
%% Right hands across left back again :|.
%% lead down the middle up again and cast off .|:
%% Hands 6 quite round :|:
%% Hands 6 back again .|:.
%% foot it and lead out sides :|:.
%%endtext

%%sep 1 1 500
%%sep 1 1 500
